X:164
T:Humors of Glendart, The
R:jig
M:6/8
K:D
L:1/8
S:Sean Gavin
BAF AFD | F3 DFA | BAF AFD | FED E3 |
BAF AFD | F3 DFA | dcB AFE | FDD D3 :|
|: def d2B | AFA AFA | def d2f | ede fdB |
def d2B | AFA ABc | dcB AFE | FDD D3 :|

%%newpage
%%scale .7
%%staffsep 40

